X:1
T:Title
%%score { 1 | 2 }
L:1/8
Q:1/4=100
M:4/4
K:A
V:1 treble nm="Grand Piano"
V:2 bass 
V:1
 [CE]2 [Ec]2 [Ec]>[DB] [CA]>[EB] | [FA]4 F4 | E2 B2 B>B [EA]>B | c6 z2 | %4
w: Warren~W.~Bentley * * * * *||||
 [CE]2 [Ec]2 [Ec]>[DB] [CA]>[EB] | [FA]4 [DF]4 | [^DB]2 [DB]2 [DB]>[FA] [EG]>[DF] | E8 | %8
w: ||||
 B2 B2 B>c d>B | [Ec]4 [EA]4 | [DF]2 [EG]2 [EA]>[EA] G>A | B8 | [CE]2 [Ec]2 [Ec]>[DB] [CA]>[EG] | %13
w: |||||
[M:9/8] [DF]3- [DF] [Fd]2- [Fd][Ec][EB] |[M:4/4] [EA]2 [FA]2 [EG]3 [DG] | [CA]6 z2 |] %16
w: |||
V:2
 [A,,A,]2 [A,,A,]2 [A,,A,]>[A,,A,] [A,,A,]>[C,A,] | [D,A,]4 [D,A,D]4 | %2
 [E,G,D]2 [E,G,D]2 [E,G,D]>[E,G,D] [C,A,]>[E,G,E] | [A,E]6 z2 | %4
 [A,,A,]2 [A,,A,]2 [A,,A,]>[A,,A,] [A,,A,]>[C,A,] | [D,A,]4 [D,A,]4 | %6
 [B,,A,]2 [B,,F,]2 [B,,F,]>[B,,B,] [B,,B,]>[B,,A,] | [E,G,]8 | %8
 [E,G,E]2 [E,G,E]2 [E,G,E]>[E,A,E] [E,B,E]>[E,G,E] | [A,,A,]4 [C,A,]4 | %10
 [D,A,]2 [B,,A,]2 [C,A,]>[C,A,] [E,B,D]>[E,A,C] | [E,G,E]8 | %12
 [A,,A,]2 [A,,A,]2 [A,,A,]>[A,,A,] [A,,A,]>[C,A,] | %13
[M:9/8] [D,A,]3- [D,A,] [D,A,]2- [D,A,][A,,A,][B,,G,] |[M:4/4] [C,A,]2 [D,B,]2 [E,B,]3 [E,B,] | %15
 [A,,A,]6 z2 |] %16

